!!!!SEGMENT: pl-sa--270-a-vii-30--001_hermanowski-a--planctus-de-passione-placz-kto-zyw.krn
!!!cenid: 17xx:338
!!!COM: Hermanowski, A.
!!!COM-rism: pe41014837
!!!CDT: <1741->1743
!!!CNT: Polish
!!!OTL: Planctus de Passione – Płacz kto żyw
!!!PDT:
!!!AGN:
!!!SMS-siglum: PL-SA
!!!SMS-shelfmark: 270/A VII 30
!!!NIFC-rismID: 1001041673
!!!URL-scan: http://bc.bdsandomierz.pl/dlibra/publication/1753/edition/1721/content
!!!ONB-nifc:
**kern	**fba	**kern	**dynam	**kern	**dynam	**kern	**text	**text
*part4	*	*part3	*part3	*part2	*part2	*part1	*part1	*part1
*	*	*group1	*	*group1	*	*	*	*
*staff4	*	*staff3	*	*staff2	*	*staff1	*staff1	*staff1
*I"Organo	*	*I"Violino 2do	*	*I"Violin Primo	*	*I"Canto Solo	*	*
*I'org	*	*I'vl 2	*	*I'vl 1	*	*I'S solo	*	*
*clefF4	*	*clefG2	*	*clefG2	*	*clefC1	*	*
*k[b-e-a-]	*	*k[b-e-a-]	*	*k[b-e-a-]	*	*k[b-e-a-]	*	*
*M4/4	*	*M4/4	*	*M4/4	*	*M4/4	*	*
*met(c)	*	*met(c)	*	*met(c)	*	*met(c)	*	*
=1	=1	=1	=1	=1	=1	=1	=1	=1
!	!	!	!	!LO:TX:a:t=P:problem:bemole a-, ee-, b-	!	!	!	!
!LO:TX:a:t=P:problem:bemole E-, B-, BB-, A-	!	!LO:TX:a:t=P:problem:bemole f-, a-, ee-, b-	!	!LO:TX:a:t=Lentysime	!	!	!	!
!LO:TX:a:t=1	!	!LO:TX:a:t=1	!	!LO:TX:a:t=1	!	!LO:TX:a:t=P:problem:bemole a-, ee-, b-	!	!
!LO:TX:b:t=Płacz kto Zyw	!	!LO:TX:b:t=Ach	!	!LO:TX:b:t=Płacz kto zyw	!	!LO:TX:a:t=1	!	!
8C/L	.	8ee-\L	.	8gg\L	.	00r	.	.
8C/	.	8ee-\	.	8gg\	.	.	.	.
8C/	.	8ee-\	.	8gg\	.	.	.	.
8C/J	.	8ee-\J	.	8gg\J	.	.	.	.
8C/L	6 4_	8ff\	.	8aa-\	.	.	.	.
8C/	5_	4ee-\	.	4gg\	.	.	.	.
8C/	.	.	.	.	.	.	.	.
8C/J	X	8ee-\	.	8cc\	.	.	.	.
=2	=2	=2	=2	=2	=2	=2	=2	=2
4BBn/	.	8dd\L	.	8ff\L	.	.	.	.
.	.	16ff\L	.	16aa-\L	.	.	.	.
.	.	16ee-\JJ	.	16gg\JJ	.	.	.	.
4r	.	16dd\LL	.	16ff\LL	.	.	.	.
.	.	16cc\	.	16ee-\	.	.	.	.
.	.	16bn\	.	16dd\	.	.	.	.
.	.	16a-X\JJ	.	16cc\JJ	.	.	.	.
8r	.	8a-/L	.	8cc\L	.	.	.	.
16G\LL	.	8g/J	.	8bn\J	.	.	.	.
16A-\JJ	.	.	.	.	.	.	.	.
!	!	!LO:TX:a:t=P:problem:mixed beam	!	!LO:TX:a:t=P:problem:mixed beam	!	!	!	!
8Bn\L	.	8G/L	.	8G/L	.	.	.	.
8G\J	.	8een\J	.	8gg\J	.	.	.	.
=3	=3	=3	=3	=3	=3	=3	=3	=3
!	!	!LO:SIC:s=16n:v	!	!	!	!	!	!
8c\	#n	16ee-\LL	.	16gg\LL	.	.	.	.
.	.	16ff\	.	(16aa-\	.	.	.	.
8r	.	16ff\	.	16aa-\	.	.	.	.
!	!	!LO:SIC:s=16n:v	!	!	!	!	!	!
.	.	16ee-\JJ	.	16gg\JJ)	.	.	.	.
8C/	#n	16gg\LL	.	16bb-\LL	.	.	.	.
.	.	16ff\	.	(16aa-\	.	.	.	.
8r	.	16ff\	.	16aa-\	.	.	.	.
!	!	!LO:SIC:s=16n:v	!	!	!	!	!	!
.	.	16ee-\JJ	.	16gg\JJ)	.	.	.	.
!	!	!LO:TX:a:t=P:problem:mixed beam	!	!	!	!	!	!
8F\L	.	8ff\L	.	8aa-\L	.	.	.	.
16F\L	.	8f/J	.	8ff\J	.	.	.	.
16G\JJ	.	.	.	.	.	.	.	.
8A-\L	6	4r	.	4r	.	.	.	.
8F\J	.	.	.	.	.	.	.	.
!	!	!	!	!LO:LB:g=original	!	!	!	!
=4	=4	=4	=4	=4	=4	=4	=4	=4
8B-\	.	16dd\LL	.	16ff\LL	.	.	.	.
.	.	16ee-\	.	(16gg\	.	.	.	.
8r	.	16ee-\	.	16gg\	.	.	.	.
.	.	16dd\JJ	.	16ff\JJ)	.	.	.	.
!LO:LB:g=original	!	!	!	!	!	!	!	!
8BB-/	.	16ff\LL	.	16aa-\LL	.	.	.	.
.	.	16ee-\	.	(16gg\	.	.	.	.
8r	.	16ee-\	.	16gg\	.	.	.	.
.	.	16dd\JJ	.	16ff\JJ)	.	.	.	.
!	!	!LO:TX:a:t=P:problem:mixed beam	!	!	!	!	!	!
8E-\L	.	8ee-\L	.	8gg\L	.	.	.	.
16E-\L	.	8e-/J	.	8ee-\J	.	.	.	.
16F\JJ	.	.	.	.	.	.	.	.
8G\L	.	8r	.	8r	.	.	.	.
8E-\J	.	8cc\	.	16gg\LL	.	.	.	.
.	.	.	.	16ee-\JJ	.	.	.	.
!	!	!LO:LB:g=original	!	!	!	!	!	!
=5	=5	=5	=5	=5	=5	=5	=5	=5
!LO:TX:a:t=P:problem:mixed beam	!	!	!	!	!	!	!	!
!LO:TX:a:t=|:problem	!	!	!	!	!	!	!	!
8G\L	.	16bn\LL	.	16dd\LL	.	0r	.	.
.	.	(16cc\	.	16ee-\	.	.	.	.
!LO:TX:a:t=|:problem	!	!	!	!	!	!	!	!
8GG/	.	16cc\	.	16ee-\	.	.	.	.
.	.	16b\JJ)	.	16dd\JJ	.	.	.	.
!LO:TX:a:t=|:problem	!	!	!	!	!	!	!	!
8GG/	.	16dd\LL	.	16ff\LL	.	.	.	.
.	.	(16cc\	.	16ee-\	.	.	.	.
!LO:TX:a:t=|:problem	!	!	!	!	!	!	!	!
8GG/J	.	16cc\	.	16ee-\	.	.	.	.
.	.	16b\JJ)	.	16dd\JJ	.	.	.	.
!LO:TX:a:t=|:problem	!	!	!	!	!	!	!	!
8GG/L	.	16b\LL	.	16dd\LL	.	.	.	.
.	.	(16cc\	.	16ee-\	.	.	.	.
!LO:TX:a:t=|:problem	!	!	!	!	!	!	!	!
8GG/	.	16cc\	.	16ee-\	.	.	.	.
.	.	16b\JJ)	.	16dd\JJ	.	.	.	.
!LO:TX:a:t=|:problem	!	!	!	!	!	!	!	!
8GG/	.	16dd\LL	.	16ff\LL	.	.	.	.
.	.	(16cc\	.	16ee-\	.	.	.	.
!LO:TX:a:t=|:problem	!	!	!	!	!	!	!	!
8GG/J	.	16cc\	.	16ee-\	.	.	.	.
.	.	16b\JJ)	.	16dd\JJ	.	.	.	.
=6	=6	=6	=6	=6	=6	=6	=6	=6
8BBn/L	7_ 5_	4ff\	.	4aa-\	.	.	.	.
8BB/	.	.	.	.	.	.	.	.
8BB/	.	8r	.	8r	.	.	.	.
8C/J	5	8ee-\	.	8gg\	.	.	.	.
!	!	!LO:TX:a:t=P:problem:mixed beam	!	!	!	!	!	!
8F\L	-	8cc\L	.	8aa-\L	.	.	.	.
16G\L	.	8e-/J	.	8cc\J	.	.	.	.
16A-\JJ	.	.	.	.	.	.	.	.
!LO:TX:a:t=P:problem:mixed beam	!	!	!	!	!	!	!	!
8G\L	.	8.e-/L	.	8.bn\L	.	.	.	.
8GG/J	.	.	.	.	.	.	.	.
.	.	16d/Jk	.	16b\Jk	.	.	.	.
=7	=7	=7	=7	=7	=7	=7	=7	=7
!	!	!	!	!	!	!LO:TX:b:t=P:problem:"P" przed kluczem	!	!
4C/	.	8c/L	.	8cc\L	.	4gg\	(P)łacz	.
.	.	8c/	.	8ee-\J	.	.	.	.
!	!	!	!	!	!LO:DY:a:t=piano	!LO:TUP:a:problem:klamra łukowa:global	!	!
*	*	*	*	*	*	*	*ij	*
4r	.	8Bn/	.	16dd\LL	p	24ff\LL	Płacz	.
*	*	*	*	*	*	*	*Xij	*
.	.	.	.	.	.	24ee-\	.	.
.	.	.	.	16bn\	.	.	.	.
.	.	.	.	.	.	24dd\JJ	.	.
.	.	8c/J	.	16cc\	.	24ee-\LL	kto	.
.	.	.	.	.	.	24dd\	.	.
.	.	.	.	16a-X\JJ	.	.	.	.
.	.	.	.	.	.	24cc\JJ	.	.
!	!	!	!	!LO:LB:g=original	!	!	!	!
2rBB	.	8g/L	.	8g/L	.	4bn\	Zyw	.
.	.	16G/L	.	16G/L	.	.	.	.
.	.	16A-/JJ	.	16A-/JJ	.	.	.	.
.	.	8Bn/L	.	8Bn/L	.	4r	.	.
.	.	8c/J	.	8c/J	.	.	.	.
=8	=8	=8	=8	=8	=8	=8	=8	=8
!	!	!	!	!LO:TX:a:t=P:problem:mixed beam	!	!	!	!
2rBB	.	8g/L	.	8g 8G/L	.	4gg\	pa-	.
.	.	8c/	.	8ee-\J	.	.	.	.
.	.	8Bn/	.	16dd\LL	.	24ff\LL	-trząc	.
.	.	.	.	.	.	24ee-\	.	.
.	.	.	.	16bn\	.	.	.	.
.	.	.	.	.	.	24dd\JJ	.	.
.	.	8c/J	.	16cc\	.	24ee-\LL	na	.
.	.	.	.	.	.	24dd\	.	.
.	.	.	.	16a-\JJ	.	.	.	.
.	.	.	.	.	.	24cc\JJ	.	.
!	!	!	!	!LO:TX:a:t=P:problem:mixed beam	!	!	!	!
4r	.	8g/L	.	8g/L	.	4bn\	dziw	.
.	.	16G/L	.	8G/	.	.	.	.
.	.	16A-/JJ	.	.	.	.	.	.
8r	.	8Bn/L	.	8G/	.	4r	.	.
8C/	#n	8c/J	.	8gg\J	.	.	.	.
=9	=9	=9	=9	=9	=9	=9	=9	=9
!	!	!	!LO:DY:a:rj	!	!LO:DY:a	!	!	!
8C/	#n	16een\LL	f	16gg\LL	f	00r	.	.
.	.	16ff\	.	16aa-\	.	.	.	.
8r	.	16ff\	.	16aa-\	.	.	.	.
.	.	16ee\JJ	.	16gg\JJ	.	.	.	.
!	!	!LO:LB:g=original	!	!	!	!	!	!
8C/	.	16gg\LL	.	16bb-\LL	.	.	.	.
.	.	16ff\	.	16aa-\	.	.	.	.
8r	.	16ff\	.	16aa-\	.	.	.	.
.	.	16ee\JJ	.	16gg\JJ	.	.	.	.
!LO:LB:g=original	!	!	!	!	!	!	!	!
8C/	.	16een\LL	.	16gg\LL	.	.	.	.
.	.	16ff\	.	16aa-\	.	.	.	.
8r	.	16ff\	.	16aa-\	.	.	.	.
.	.	16ee\JJ	.	16gg\JJ	.	.	.	.
8C/	.	16gg\LL	.	16bb-\LL	.	.	.	.
.	.	16ff\	.	16aa-\	.	.	.	.
8r	.	16ff\	.	16aa-\	.	.	.	.
.	.	16ee\JJ	.	16gg\JJ	.	.	.	.
=10	=10	=10	=10	=10	=10	=10	=10	=10
8B-\	.	16dd\LL	.	16ff\LL	.	.	.	.
.	.	16ee-X\	.	16gg\	.	.	.	.
8r	.	16ee-\	.	16gg\	.	.	.	.
.	.	16dd\JJ	.	16ff\JJ	.	.	.	.
8BB-/	.	16ff\LL	.	16aa-\LL	.	.	.	.
.	.	16ee-\	.	16gg\	.	.	.	.
8r	.	16ee-\	.	16gg\	.	.	.	.
.	.	16dd\JJ	.	16ff\JJ	.	.	.	.
8BB-/	.	16dd\LL	.	16ff\LL	.	.	.	.
.	.	16ee-X\	.	16gg\	.	.	.	.
8r	.	16ee-\	.	16gg\	.	.	.	.
.	.	16dd\JJ	.	16ff\JJ	.	.	.	.
8BB-/	.	16ff\LL	.	16aa-\LL	.	.	.	.
.	.	16ee-\	.	16gg\	.	.	.	.
8r	.	16ee-\	.	16gg\	.	.	.	.
.	.	16dd\JJ	.	16ff\JJ	.	.	.	.
=11	=11	=11	=11	=11	=11	=11	=11	=11
8BBn/	5	16dd\LL	.	16ff\LL	.	.	.	.
.	.	16ff\	.	16aa-\	.	.	.	.
8r	.	16ff\	.	16aa-\	.	.	.	.
.	.	16ee-\JJ	.	16gg\JJ	.	.	.	.
!	!	!	!	!LO:LB:g=original	!	!	!	!
8C/	.	16ee-\LL	.	16gg\LL	.	.	.	.
.	.	16dd\	.	16ff\	.	.	.	.
8r	.	16dd\	.	16ff\	.	.	.	.
.	.	16cc\JJ	.	16ee-\JJ	.	.	.	.
8C/	.	16cc\LL	.	16ee-\LL	.	.	.	.
.	.	16bn\	.	16dd\	.	.	.	.
8r	.	16b\	.	16dd\	.	.	.	.
.	.	16a-X\JJ	.	16cc\JJ	.	.	.	.
!LO:TX:a:t=P:problem:mixed beam	!	!	!	!	!	!	!	!
8C/L	.	8a-/L	.	8cc\L	.	.	.	.
8G\J	#n	16g/L	.	16bn\L	.	.	.	.
.	.	16g/JJ	.	16b\JJ	.	.	.	.
=12	=12	=12	=12	=12	=12	=12	=12	=12
!LO:TX:a:t=P:problem:mixed beam	!	!	!	!	!	!	!	!
8Bn\L	.	4ff\	.	4aa-\	.	.	.	.
!LO:SIC:s=8BBn:v	!	!	!	!	!	!	!	!
8BB-/	.	.	.	.	.	.	.	.
!LO:SIC:s=8BBn:v	!	!	!	!	!	!	!	!
8BB-/	.	8r	.	8r	.	.	.	.
8C/J	.	16ee-\LL	.	8gg\	.	.	.	.
.	.	16dd\JJ	.	.	.	.	.	.
8F\L	.	8cc\L	.	8aa-\L	.	.	.	.
16G\L	.	16g\L	.	16b-\L	.	.	.	.
16A-\JJ	.	16f\JJ	.	16an\JJ	.	.	.	.
8G/L	.	8.e-/L	.	8.bnm\L	.	.	.	.
8GG/J	#4r	.	.	.	.	.	.	.
.	.	16d/Jk	.	16b\Jk	.	.	.	.
!	!	!LO:LB:g=original	!	!	!	!	!	!
=13	=13	=13	=13	=13	=13	=13	=13	=13
!	!	!	!LO:DY:a	!	!LO:DY:a	!	!	!
4C/	.	8c/L	p	8cc\L	p	4gg\	Płacz	.
.	.	8c/	.	8ee-\J	.	.	.	.
*	*	*	*	*	*	*	*ij	*
4r	.	8Bn/	.	(16dd\LL	.	24ff\LL	Płacz	.
*	*	*	*	*	*	*	*Xij	*
.	.	.	.	.	.	24ee-\	.	.
.	.	.	.	16bn\)	.	.	.	.
.	.	.	.	.	.	24dd\JJ	.	.
.	.	8c/J	.	(16cc\	.	24ee-\LL	kto	.
.	.	.	.	.	.	24dd\	.	.
.	.	.	.	16a-X\JJ)	.	.	.	.
.	.	.	.	.	.	24cc\JJ	.	.
2r	.	8g/L	.	8g/L	.	4bn\	Zyw	.
.	.	16G/L	.	16G/L	.	.	.	.
.	.	16A-/JJ	.	16A-/JJ	.	.	.	.
.	.	8Bn/L	.	8Bn/L	.	4r	.	.
.	.	8c/J	.	8c/J	.	.	.	.
!	!	!	!	!	!	!LO:LB:g=original	!	!
=14	=14	=14	=14	=14	=14	=14	=14	=14
!	!	!	!	!LO:TX:a:t=P:problem:mixed beam	!	!	!	!
0r	.	8g/L	.	8g 8G/L	.	4gg\	Pa-	.
.	.	8c/	.	8ee-\J	.	.	.	.
.	.	8Bn/	.	16dd\LL	.	24ff\LL	-trząc	.
.	.	.	.	.	.	24ee-\	.	.
.	.	.	.	16bn\	.	.	.	.
.	.	.	.	.	.	24dd\JJ	.	.
.	.	8c/J	.	16cc\	.	24ee-\LL	na	.
.	.	.	.	.	.	24dd\	.	.
.	.	.	.	16a-X\JJ	.	.	.	.
.	.	.	.	.	.	24cc\JJ	.	.
.	.	8g/L	.	8g/L	.	4bn\	dzyw	.
.	.	16G/L	.	16G/L	.	.	.	.
.	.	16A-/JJ	.	16A-/JJ	.	.	.	.
!	!	!	!	!LO:LB:g=original	!	!	!	!
.	.	8Bn/L	.	8Bn/L	.	8r	.	.
.	.	16c/L	.	8G/J	.	8dd\	na	.
.	.	16G/JJ	.	.	.	.	.	.
=15	=15	=15	=15	=15	=15	=15	=15	=15
.	.	8c/L	.	8cc\L	.	8ee-\L	Zal	.
.	.	8G/	.	16bn\L	.	16dd\L	.	.
.	.	.	.	16a-X\JJ	.	16cc\JJ	.	.
.	.	8G/	.	8g/L	.	8bn\	ne-	.
.	.	8G/J	.	8an/J	.	8cc\	-sły-	.
!	!	!LO:TX:a:t=P:problem:mixed beam	!	!	!	!	!	!
.	.	8G/L	.	8b/L	.	(16dd\LL	-cha-	.
.	.	.	.	.	.	16cc\)	.	.
.	.	8G/	.	8g/	.	(16b\	.	.
.	.	.	.	.	.	16a-\JJ)	.	.
.	.	8G/	.	8g/	.	4g/	-ny	.
.	.	8bn\J	.	8dd/J	.	.	.	.
!LO:LB:g=original	!	!	!	!	!	!	!	!
=16	=16	=16	=16	=16	=16	=16	=16	=16
!LO:TX:a:t=P:problem:mixed beam	!	!	!	!	!	!	!	!
8C/L	.	8cc\L	.	8ee-\L	.	1r	.	.
8C/	.	16bn\L	.	16dd\L	.	.	.	.
.	.	16a-X\JJ	.	16cc\JJ	.	.	.	.
8G\	#n	8g/L	.	8bn\L	.	.	.	.
8C/J	.	8an/J	.	8cc\J	.	.	.	.
!LO:TX:a:t=P:problem:mixed beam	!	!	!	!	!	!	!	!
8G\L	.	8bn/L	.	16dd\LL	.	.	.	.
.	.	.	.	16cc\	.	.	.	.
8GG/	.	8g/	.	16bn\	.	.	.	.
.	.	.	.	16a-X\JJ	.	.	.	.
8GG/	.	8G/	.	8g/L	.	.	.	.
8GG/J	.	8G/J	.	8G/J	.	.	.	.
!	!	!LO:LB:g=original	!	!	!	!	!	!
=17	=17	=17	=17	=17	=17	=17	=17	=17
8G\L	.	0r	.	0r	.	8dd\	Ze	.
8Bn\	.	.	.	.	.	8dd\	Zy-	.
8c\	.	.	.	.	.	8ee-\	-we-	.
8Bn\J	6	.	.	.	.	8dd\	-go	.
8B\L	6	.	.	.	.	8dd\	Bo-	.
!LO:SIC:s=8An:v	!	!	!	!	!	!	!	!
8A-\J	6	.	.	.	.	8ff#X\	-ga	.
16B\LL	.	.	.	.	.	4gg\	ſyn	.
16A-\	.	.	.	.	.	.	.	.
16B\	.	.	.	.	.	.	.	.
16G\JJ	.	.	.	.	.	.	.	.
!	!	!	!	!	!	!LO:LB:g=original	!	!
=18	=18	=18	=18	=18	=18	=18	=18	=18
!	!	!	!	!	!	!LO:SIC:s=16aan	!	!
8F#X\L	#n	.	.	.	.	16aa-\LL	na	.
.	.	.	.	.	.	16gg\JJ	.	.
8D\	.	.	.	.	.	16ff#X\LL	ſmierc	.
.	.	.	.	.	.	16ee-X\JJ	.	.
8G\	-	.	.	.	.	16dd\LL	.	.
.	.	.	.	.	.	16cc\JJ	.	.
8B-\J	.	.	.	.	.	16b-\LL	.	.
.	.	.	.	.	.	16a-\JJ	.	.
!LO:TX:a:t=P:problem:mixed beam	!	!	!	!	!	!	!	!
8G\L	-	.	.	.	.	16b-\LL	ſka-	.
.	.	.	.	.	.	16g\	.	.
16BB-/L	.	.	.	.	.	16ee-\	.	.
16C/JJ	.	.	.	.	.	16g\JJ	.	.
!	!	!	!	!	!	!LO:SIC:s=4an	!	!
8D/L	.	.	.	.	.	4a-M\	-za-	.
8DD/J	#4r	.	.	.	.	.	.	.
=19	=19	=19	=19	=19	=19	=19	=19	=19
8GG/L	.	16bb-\LL	.	16ddd\LL	.	4g/	-ny	.
.	.	16aa-\	.	16ccc\	.	.	.	.
!LO:TX:b:t=|:problem	!	!	!	!	!	!	!	!
8D/	.	16aa-\	.	16ccc\	.	.	.	.
.	.	16gg\JJ	.	16bb-\JJ	.	.	.	.
!LO:TX:b:t=|:problem	!	!	!	!	!	!	!	!
8D/	.	16gg\LL	.	16bb-\LL	.	4r	.	.
.	.	16ff#X\	.	16aan\	.	.	.	.
!LO:TX:b:t=|:problem	!	!	!	!	!	!	!	!
8D/J	.	16ff#\	.	16aa\	.	.	.	.
.	.	16gg\JJ	.	16bb-\JJ	.	.	.	.
!LO:TX:b:t=|:problem	!	!	!	!	!	!	!	!
8D/L	.	8aa-\L	.	8ccc\L	.	2r	.	.
!LO:TX:b:t=|:problem	!	!	!	!	!	!	!	!
8D/	.	16gg\L	.	16bb-\L	.	.	.	.
.	.	16gg\JJ	.	16bb-\JJ	.	.	.	.
!LO:TX:b:t=|:problem	!	!	!	!	!	!	!	!
8D/	.	16gg\LL	.	16bb-\LL	.	.	.	.
.	.	16ff#X\J	.	16aan\J	.	.	.	.
!LO:TX:b:t=|:problem	!	!	!	!	!	!	!	!
8D/J	.	8ff#\J	.	8aa\J	.	.	.	.
!LO:LB:g=original	!	!	!	!	!	!	!	!
=20	=20	=20	=20	=20	=20	=20	=20	=20
!LO:TX:b:t=|:problem	!	!LO:TX:a:t=P:problem:takt zapisany powtórką	!	!LO:TX:a:t=P:problem:takt zapisany powtórką	!	!	!	!
8D/L	.	16bb-\LLyy	.	16ddd\LLyy	.	00r	.	.
.	.	16aa-\yy	.	16ccc\yy	.	.	.	.
!LO:TX:b:t=|:problem	!	!	!	!	!	!	!	!
8D/	.	16aa-\yy	.	16ccc\yy	.	.	.	.
.	.	16gg\JJyy	.	16bb-\JJyy	.	.	.	.
!LO:TX:b:t=|:problem	!	!	!	!	!	!	!	!
8D/	.	16gg\LLyy	.	16bb-\LLyy	.	.	.	.
.	.	16ff#X\yy	.	16aan\yy	.	.	.	.
!LO:TX:b:t=|:problem	!	!	!	!	!	!	!	!
8D/J	.	16ff#\yy	.	16aa\yy	.	.	.	.
.	.	16gg\JJyy	.	16bb-\JJyy	.	.	.	.
!LO:TX:b:t=|:problem	!	!	!	!	!	!	!	!
8D/L	.	8aa-\Lyy	.	8ccc\Lyy	.	.	.	.
!LO:TX:b:t=|:problem	!	!	!	!	!	!	!	!
8D/	.	16gg\Lyy	.	16bb-\Lyy	.	.	.	.
.	.	16gg\JJyy	.	16bb-\JJyy	.	.	.	.
!LO:TX:b:t=|:problem	!	!	!	!	!	!	!	!
8D/	.	16gg\LLyy	.	16bb-\LLyy	.	.	.	.
.	.	16ff#X\Jyy	.	16aan\Jyy	.	.	.	.
!LO:TX:b:t=|:problem	!	!	!	!	!	!	!	!
8D/J	.	8ff#\Jyy	.	8aa\Jyy	.	.	.	.
=21	=21	=21	=21	=21	=21	=21	=21	=21
8G\L	.	8gg\L	.	16bb-\LL	.	.	.	.
.	.	.	.	16gg\	.	.	.	.
!LO:SIC:s=8An:v	!	!	!	!	!	!	!	!
8A-\J	6	16dd\L	.	16ff#X\	.	.	.	.
.	.	16cc\JJ	.	16ee-\JJ	.	.	.	.
!LO:TX:a:t=P:problem:mixed beam	!	!	!	!	!	!	!	!
16B-\LL	.	16b-X/LL	.	16dd\LL	.	.	.	.
!	!	!LO:SIC:s=16an	!	!	!	!	!	!
16c\	.	16a-/	.	16cc\	.	.	.	.
16d\	.	16g/	.	16b-\	.	.	.	.
!	!	!	!	!LO:SIC:s=16an	!	!	!	!
16D/JJ	#4r	16f#X/JJ	.	16a-\JJ	.	.	.	.
!	!	!	!	!LO:LB:g=original	!	!	!	!
!LO:TX:a:t=P:problem:mixed beam	!	!LO:TX:a:t=P:problem:mixed beam	!	!LO:TX:a:t=P:problem:mixed beam	!	!	!	!
8G\L	.	8g/L	.	8g/L	.	.	.	.
8C/	.	16ee-\L	.	16gg\L	.	.	.	.
.	.	16ff\JJ	.	16aa-X\JJ	.	.	.	.
!	!	!LO:TX:a:t=P:problem:mixed beam	!	!LO:TX:a:t=P:problem:mixed beam	!	!	!	!
8C/	.	8ee-\L	.	8gg\L	.	.	.	.
8G\J	#n	8g/J	.	8bn/J	.	.	.	.
=22	=22	=22	=22	=22	=22	=22	=22	=22
!	!	!LO:TX:a:t=P:problem:mixed beam	!	!	!	!	!	!
8c\L	.	8e-/L	.	8cc\L	.	.	.	.
8B-X\	.	16dd\L	.	16ff\L	.	.	.	.
.	.	16ee-\JJ	.	16gg\JJ	.	.	.	.
!	!	!LO:TX:a:t=P:problem:mixed beam	!	!LO:TX:a:t=P:problem:mixed beam	!	!	!	!
8B-\	.	8dd\L	.	8ff\L	.	.	.	.
8F\J	.	8f/J	.	8an/J	.	.	.	.
!LO:TX:a:t=P:problem:mixed beam	!	!	!	!	!	!	!	!
8BB-/L	.	8d/L	.	8b-\L	.	.	.	.
16G\L	6	8g/J	.	8ee-\	.	.	.	.
16A-\JJ	.	.	.	.	.	.	.	.
8B-\L	.	8dd\L	.	8ff\	.	.	.	.
8E-\J	.	8ee-\J	.	8gg\J	.	.	.	.
=23	=23	=23	=23	=23	=23	=23	=23	=23
8F\L	-	4ff\	.	4aa-X\	.	.	.	.
16F\L	.	.	.	.	.	.	.	.
16E-\JJ	.	.	.	.	.	.	.	.
8D\L	6	16r	.	16r	.	.	.	.
.	.	16ff\LL	.	16aa-\LL	.	.	.	.
8BB-\J	.	16ee-\	.	16gg\	.	.	.	.
.	.	16dd\JJ	.	16ff\JJ	.	.	.	.
!LO:TX:a:t=P:problem:mixed beam	!	!LO:TX:a:t=P:problem:mixed beam	!	!	!	!	!	!
8E-\L	.	8ee-\L	.	8gg\L	.	.	.	.
8G\	.	8g/J	.	8ee-\J	.	.	.	.
8B-\	.	8.b-/L	.	8.ffM\L	.	.	.	.
8BB-/J	4	.	.	.	.	.	.	.
.	3	16a-X/Jk	.	16ee-\Jk	.	.	.	.
!LO:LB:g=original	!	!	!	!	!	!	!	!
=24	=24	=24	=24	=24	=24	=24	=24	=24
!	!	!	!LO:DY:a:t=Piano	!	!	!	!	!
8E-\L	5_	8g/L	p	8ee-\L	.	4ee-\	Stra-	.
!	!	!	!	!LO:TX:a:t=|:problem	!LO:DY:a	!	!	!
8E-\	.	8g/	.	8b-\	p	.	.	.
!	!	!	!	!LO:TX:a:t=|:problem	!	!	!	!
8E-\	7_ 5_	8g/	.	8b-\	.	4dd-X\	-szny	.
8E-\J	.	8g/J	.	8b-\J	.	.	.	.
!	!	!LO:LB:g=original	!	!LO:TX:a:t=|:problem	!	!	!	!
8E-\L	.	8g/L	.	8b-\L	.	4dd-\	to	.
!	!	!	!	!LO:TX:a:t=|:problem	!	!	!	!
8E-\	X X	8g/	.	8b-\	.	.	.	.
!	!	!	!	!LO:TX:a:t=|:problem	!	!	!	!
8A-X\	3	8a-X/	.	8cc\	.	4cc\	ſąd	.
!	!	!	!	!LO:TX:a:t=|:problem	!	!	!	!
8A-\J	.	8a-/J	.	8cc\J	.	.	.	.
=25	=25	=25	=25	=25	=25	=25	=25	=25
*	*	*	*	*	*	*	*ij	*
!	!	!	!	!LO:TX:a:t=|:problem	!	!	!	!
8Fn\L	n	8an/L	.	8cc\L	.	4ff\	Stra-	.
!	!	!	!	!LO:TX:a:t=|:problem	!	!	!	!
8F\	.	8a/	.	8cc\	.	.	.	.
!	!	!	!	!LO:TX:a:t=|:problem	!	!	!	!
8F\	7_ 5_	8a/	.	8cc\	.	4ee-\	-szny	.
!	!	!	!	!LO:TX:a:t=|:problem	!	!	!	!
8F\J	X X	8a/J	.	8cc\J	.	.	.	.
!LO:TX:a:t=P:problem:mixed beam	!	!	!	!LO:TX:a:t=|:problem	!	!	!	!
8F\L	.	8a/L	.	8cc\L	.	4ee-\	to	.
!	!	!	!	!LO:TX:a:t=|:problem	!	!	!	!
8F\	.	8a/	.	8cc\	.	.	.	.
!	!	!	!	!LO:TX:a:t=|:problem	!	!	!	!
8B-\	.	8b-/	.	8dd\	.	4dd\	sąd	.
*	*	*	*	*	*	*	*Xij	*
!	!	!	!	!LO:TX:a:t=|:problem	!	!	!	!
8BB-/J	.	8b-/J	.	8dd\J	.	.	.	.
=26	=26	=26	=26	=26	=26	=26	=26	=26
!LO:TX:a:t=1:problem:z łuczkiem	!	!	!	!	!	!	!	!
1r	.	8B-/L	.	8B-'/L	.	8r	.	.
.	.	8B-/	.	8B-'/	.	16dd\LL	Z ło-	.
.	.	.	.	.	.	16ee-\JJ	.	.
!	!	!	!	!	!	!LO:LB:g=original	!	!
!	!	!	!	!	!	!LO:TX:a:t=P:problem:wysokość nieczytelna	!	!
.	.	8B-/	.	8B-'/	.	8ff\	-tra-	.
.	.	8B-/J	.	8B-'/J	.	8a-X\	-my	.
.	.	8B-/L	.	8B-'/L	.	8a-\	w rząd	.
.	.	8B-/	.	8B-'/	.	16dd\LL	Je-	.
.	.	.	.	.	.	16ee-\JJ	.	.
.	.	8B-/	.	8B-'/	.	8ff\	-zu-	.
.	.	8B-/J	.	8B-'/J	.	8f/	-sa	.
!	!	!	!	!LO:LB:g=original	!	!	!	!
=27	=27	=27	=27	=27	=27	=27	=27	=27
!LO:TX:a:t=P:problem:mixed beam	!	!	!	!	!	!	!	!
8E-\L	.	4B-/	.	4B-/	.	8g\	po-	.
8G\	.	.	.	.	.	8a-\	-li-	.
8B-\	.	4r	.	4r	.	8.g/L	-czo-	.
8BB-/J	4	.	.	.	.	.	.	.
.	3	.	.	.	.	16fM/Jk	.	.
!	!	!	!LO:DY:a	!LO:TX:a:t=|:problem	!	!	!	!
8E-\L	.	8g/L	f	8b-\L	.	4e-/	-no	.
!	!	!	!	!LO:TX:a:t=|:problem	!	!	!	!
8E-\	.	8g/	.	8b-\	.	.	.	.
!	!	!	!	!LO:TX:a:t=|:problem	!	!	!	!
8E-\	.	8g/	.	8b-\	.	4r	.	.
!	!	!	!	!LO:TX:a:t=|:problem	!	!	!	!
8E-\J	.	8g/J	.	8b-\J	.	.	.	.
=28	=28	=28	=28	=28	=28	=28	=28	=28
8D\L	6\_ 4_	8g/L	.	8bn\L	.	0r	.	.
8D\	.	8g/	.	8b\	.	.	.	.
8D\	.	8g/	.	8b\	.	.	.	.
8D\J	.	8g/J	.	8b\J	.	.	.	.
!	!	!	!	!LO:TUP:a:problem:klamra łukowa:global	!	!	!	!
8G\L	7_ 5_	8bbn\L	.	24b\LL	.	.	.	.
.	.	.	.	24cc\	.	.	.	.
.	.	.	.	24dd\JJ	.	.	.	.
8G\	.	8bb\	.	24dd\LL	.	.	.	.
.	.	.	.	24ee-\	.	.	.	.
.	.	.	.	24ff\JJ	.	.	.	.
8G\	.	8bb\	.	24ff\LL	.	.	.	.
.	.	.	.	24ee-\	.	.	.	.
.	.	.	.	24dd\JJ	.	.	.	.
8G\J	.	8bb\J	.	24dd\LL	.	.	.	.
.	.	.	.	24cc\	.	.	.	.
.	.	.	.	24b\JJ	.	.	.	.
=29	=29	=29	=29	=29	=29	=29	=29	=29
!	!	!LO:SIC:s=16bbn	!	!LO:SIC:s=16bn	!	!	!	!
8G\L	.	8bb-\L	.	24b-/LL	.	.	.	.
.	.	.	.	24a-/	.	.	.	.
.	.	.	.	24g/JJ	.	.	.	.
8G\	.	8bb-\	.	24f/LL	.	.	.	.
.	.	.	.	24e-/	.	.	.	.
.	.	.	.	24d/JJ	.	.	.	.
8G\	.	8bb-\	.	24d/LL	.	.	.	.
.	.	.	.	24c/	.	.	.	.
.	.	.	.	24B-/JJ	.	.	.	.
8G\J	.	8bb-\J	.	24B-/LL	.	.	.	.
.	.	.	.	24A-/	.	.	.	.
.	X X	.	.	24G/JJ	.	.	.	.
!LO:LB:g=original	!	!	!	!	!	!	!	!
!LO:TX:a:t=P:problem:mixed beam	!	!	!	!LO:TX:a:t=P:problem:mixed beam	!	!	!	!
8G\L	.	8bb-\L	.	8G/L	.	.	.	.
8C/J	.	8ee-X\	.	8gg\	.	.	.	.
!LO:TX:a:t=P:problem:mixed beam	!	!	!	!	!	!	!	!
8C/L	.	8ee-\	.	8gg\	.	.	.	.
8G\J	.	8dd\J	.	8ff\J	.	.	.	.
=30	=30	=30	=30	=30	=30	=30	=30	=30
!LO:TX:a:t=P:problem:mixed beam	!	!	!	!	!	!	!	!
8E-\L	.	8cc\L	.	(16ee-\LL	.	2r	.	.
.	.	.	.	16dd\)	.	.	.	.
8F\	.	16g\L	.	(16ff\	.	.	.	.
.	.	16f\JJ	.	16cc\JJ)	.	.	.	.
8G\	.	8.e-/L	.	8.bn\L	.	.	.	.
8GG/J	.	.	.	.	.	.	.	.
.	.	16d/Jk	.	16b\Jk	.	.	.	.
!	!	!	!LO:DY:a:t=Piano	!LO:TX:a:t=P:problem:mixed beam	!	!	!	!
4C/	.	8c/L	p	8cc\L	.	4cc\	y	.
!	!	!	!	!	!LO:DY:a	!	!	!
.	.	8c/	.	8c/	p	.	.	.
.	.	.	.	.	.	16qqdd/LL	.	.
.	.	.	.	.	.	16qqee-/JJ	.	.
4r	.	8g/	.	8g/	.	4dd\	tak	.
.	.	8G/J	.	8G/J	.	.	.	.
!	!	!LO:LB:g=original	!	!	!	!	!	!
=31	=31	=31	=31	=31	=31	=31	=31	=31
0r	.	16G/LL	.	16G/LL	.	8r	.	.
.	.	16g/	.	16g/	.	.	.	.
.	.	16G/	.	16G/	.	16dd\LL	Ze	.
.	.	16g/JJ	.	16g/JJ	.	16ee-\JJ	.	.
.	.	8G/L	.	8G/L	.	16ff\LL	człek	.
.	.	.	.	.	.	16ee-\JJ	.	.
.	.	8g/J	.	8g/J	.	16dd\LL	za-	.
.	.	.	.	.	.	16cc\JJ	.	.
!	!	!	!	!LO:LB:g=original	!	!	!	!
.	.	8c/L	.	8c/L	.	8cc\	-wi-	.
.	.	8g/	.	8g/	.	8bn\	-nił	.
.	.	8G/	.	8G/	.	4r	.	.
!	!	!LO:TX:a:t=P:problem:po tym takcie przekreślony takt	!	!	!	!	!	!
.	.	8g/J	.	8g/J	.	.	.	.
!	!	!	!	!	!	!LO:LB:g=original	!	!
=32	=32	=32	=32	=32	=32	=32	=32	=32
.	.	16G/LL	.	16G/LL	.	8r	.	.
.	.	16g/	.	16g/	.	.	.	.
.	.	16G/	.	16G/	.	16dd\LL	Ze	.
.	.	16g/JJ	.	16g/JJ	.	16ee-\JJ	.	.
!	!	!	!	!LO:TX:a:t=P:problem:belkowanie poprawiane	!	!	!	!
.	.	8G/L	.	8G/L	.	16ff\LL	człek	.
.	.	.	.	.	.	16ee-\JJ	.	.
.	.	8g/J	.	8g/J	.	16dd\LL	za-	.
.	.	.	.	.	.	16cc\JJ	.	.
.	.	8c 8G/L	.	8c/L	.	8cc\	-wi-	.
.	.	8g/J	.	8g/J	.	8bn\	-nił	.
.	.	16G/LL	.	16G/LL	.	4r	.	.
.	.	16g/	.	16g/	.	.	.	.
.	.	16G/	.	16G/	.	.	.	.
.	.	16g/JJ	.	16g/JJ	.	.	.	.
=33	=33	=33	=33	=33	=33	=33	=33	=33
2rBB	.	4e-X/	.	4e-X/	.	4gg\	Bo-	.
.	.	4f/	.	4f/	.	16aa-\LL	.	.
*	*	*	*	*	*	*Xtuplet	*	*
.	.	.	.	.	.	80%3gg\L	.	.
.	.	.	.	.	.	80%3ff\	.	.
.	.	.	.	.	.	80%3ee-\	.	.
.	.	.	.	.	.	80%3dd\	.	.
.	.	.	.	.	.	80%3cc\JJJ	.	.
8C/L	.	8g/L	.	8g\L	.	8bn\	-ga	.
8E-/	.	8g/J	.	16cc\L	.	16cc\LL	za-	.
.	.	.	.	16dd\JJ	.	16dd\JJ	.	.
8G/	.	8.g/L	.	8.ee-\L	.	8.ee-\	-wie-	.
8GG/J	.	.	.	.	.	.	.	.
.	.	16f/Jk	.	16dd\Jk	.	16dd\	.	.
=34	=34	=34	=34	=34	=34	=34	=34	=34
*	*	*	*	*2\right	*	*	*	*
!	!	!LO:N:vis=2.	!	!	!	!	!	!
2C/	.	2e-/	.	2cc\	.	8cc\	-szo-	.
.	.	.	.	.	.	8c/	-no	.
.	.	.	.	.	.	4r	.	.
2r	.	2rg	.	2rg	.	2r	.	.
!LO:PB:g=original	!	!LO:PB:g=original	!	!LO:PB:g=original	!	!LO:PB:g=original	!	!
=35||	=35||	=35||	=35||	=35||	=35||	=35||	=35||	=35||
*k[b-e-a-]	*	*k[b-e-a-]	*	*k[b-e-a-]	*	*k[b-e-a-]	*	*
!LO:TX:a:t=2.	!	!LO:TX:a:t=P:problem:bemole e-, ee-, b-, a-	!	!LO:TX:b:t=Ah me ſerce	!	!	!	!
!LO:TX:a:t=P:problem:bemole BB-, B-, E-	!	!LO:TX:a:t=2.	!	!LO:TX:a:t=2.	!	!LO:TX:a:t=P:problem:bemole ee-, e-, b-, a-	!	!
!LO:TX:b:t=Ach	!	!LO:TX:b:t=Ach	!	!LO:TX:a:t=P:problem:bemole e-, ee-, b-	!	!LO:TX:a:t=2.	!	!
8E-\L	.	8g/L	.	8b-\L	.	00r	.	.
8E-\	.	8g/	.	8ee-\	.	.	.	.
8E-\	.	8g/	.	8ee-\	.	.	.	.
8E-\J	.	8g/J	.	8b-\J	.	.	.	.
8E-\L	6 4	8a-/L	.	8cc\L	.	.	.	.
8E-\	5_ 3_	8g/	.	8b-\	.	.	.	.
8E-\	.	8g/	.	8b-\	.	.	.	.
8E-\J	X X	8g/J	.	8b-\J	.	.	.	.
=36	=36	=36	=36	=36	=36	=36	=36	=36
!	!	!	!LO:DY:a:t=piano	!	!	!	!	!
8E-\L	5_ 3_	8g/L	p	8b-\L	.	.	.	.
!	!	!	!	!	!LO:DY:a	!	!	!
8E-\	.	8g/	.	8ee-\	p	.	.	.
8E-\	.	8g/	.	8ee-\	.	.	.	.
8E-\J	.	8g/J	.	8b-\J	.	.	.	.
8E-\L	6 4	8a-/L	.	8cc\L	.	.	.	.
8E-\	5_ 3_	8g/	.	8b-\	.	.	.	.
8E-\	.	8g/	.	8b-\	.	.	.	.
8E-\J	X X	8g/J	.	8b-\J	.	.	.	.
=37	=37	=37	=37	=37	=37	=37	=37	=37
8BB-/L	5_	8f/L	.	16b-\LL	.	.	.	.
.	.	.	.	16cc\	f	.	.	.
8BB-/	.	16b-/L	.	16dd\	.	.	.	.
.	.	16cc/JJ	.	16ee-\JJ	.	.	.	.
8BB-/	.	8dd\L	.	8ff\L	.	.	.	.
8BB-/J	X	16dd\L	.	8b-\J	.	.	.	.
.	.	16ee-\JJ	.	.	.	.	.	.
8BB-/L	7 5	8ff\L	.	8aa-\L	.	.	.	.
8BB-/	6 4	8ee-\	.	8gg\	.	.	.	.
8BB-/	6 4	8ee-\	.	8gg\	.	.	.	.
8BB-/J	5	8dd\J	.	8ff\J	.	.	.	.
=38	=38	=38	=38	=38	=38	=38	=38	=38
!	!	!	!	!	!LO:DY:a	!	!	!
8BB-/L	5_	8dd\L	.	16b-\LL	p	.	.	.
.	.	.	.	16cc\	.	.	.	.
8BB-/	.	16b-\L	.	16dd\	.	.	.	.
.	.	16cc\JJ	.	16ee-\JJ	.	.	.	.
!	!	!	!	!LO:LB:g=original	!	!	!	!
8BB-/	.	8dd\L	.	8ff\L	.	.	.	.
8BB-/J	X	16dd\L	.	8b-\J	.	.	.	.
.	.	16ee-\JJ	.	.	.	.	.	.
8BB-/L	7 5	8ff\L	.	8aa-\L	.	.	.	.
8BB-/	6 4	8ee-\	.	8gg\	.	.	.	.
8BB-/	6 4	8ee-\	.	8gg\	.	.	.	.
8BB-/J	5 3	8dd\J	.	8ff\J	.	.	.	.
!LO:LB:g=original	!	!LO:LB:g=original	!	!	!	!	!	!
=39	=39	=39	=39	=39	=39	=39	=39	=39
8BB-/L	5_	8dd\L	.	8ff\L	.	00r	.	.
8BB-/	.	8dd\	.	8bb-\	.	.	.	.
8BB-/	.	8dd\	.	8bb-\	.	.	.	.
8BB-/J	.	8dd\J	.	8ff\J	.	.	.	.
8BB-/L	6 4	8ee-\L	.	8gg\L	.	.	.	.
8BB-/	5_ 3_	8dd\	.	8ff\	.	.	.	.
8BB-/	.	8dd\	.	8ff\	.	.	.	.
8BB-/J	X X	8dd\J	.	8ff\J	.	.	.	.
=40	=40	=40	=40	=40	=40	=40	=40	=40
8BB-/L	.	8dd\L	.	8ff\L	.	.	.	.
8BB-/	.	8dd\	.	8bb-\	.	.	.	.
8BB-/	.	8dd\	.	8bb-\	.	.	.	.
8BB-/J	.	8dd\J	.	8ff\J	.	.	.	.
8BB-/L	6 4	8ee-\L	.	8gg\L	.	.	.	.
8BB-/	5_ 3_	8dd\	.	8ff\	.	.	.	.
8BB-/	.	8dd\	.	8ff\	.	.	.	.
8BB-/J	X X	8dd\J	.	8ff\J	.	.	.	.
=41	=41	=41	=41	=41	=41	=41	=41	=41
8E-\L	.	8ee-\L	.	8gg\L	.	.	.	.
8BB-\	.	8dd\	.	8ff\	.	.	.	.
8BB-\	.	8dd\	.	8ff\	.	.	.	.
8C\J	.	8cc\J	.	8ee-\J	.	.	.	.
8AAn/L	6 3	8cc\L	.	8ee-\L	.	.	.	.
8BB-/	.	8b-\	.	8dd\	.	.	.	.
8BB-/	.	8b-\	.	8dd\	.	.	.	.
8C/J	6\	8a-\J	.	8cc\J	.	.	.	.
=42	=42	=42	=42	=42	=42	=42	=42	=42
8C/L	.	8e-/L	.	8cc/L	.	.	.	.
16D/L	.	8d/	.	8b-/	.	.	.	.
16E-/JJ	.	.	.	.	.	.	.	.
!LO:TX:a:t=P:problem:mixed beam	!	!	!	!	!	!	!	!
8F\L	.	8d/	.	8b-/	.	.	.	.
8FF/J	n4r	8c/J	.	8an/J	.	.	.	.
!	!	!	!	!LO:LB:g=original	!	!	!	!
8BB-/L	.	8d/L	.	8b-\L	.	.	.	.
8BB-/	.	8d/	.	8b-\	.	.	.	.
8BB-/	.	8d/	.	8b-\	.	.	.	.
8BB-/J	.	8d/J	.	8b-\J	.	.	.	.
=43	=43	=43	=43	=43	=43	=43	=43	=43
!	!	!	!LO:DY:a	!	!LO:DY:a	!	!	!
8E-\L	-7_ 5_	8g/L	p	8b-\L	p	4r	.	.
8E-\	.	8g/	.	8ee-\	.	.	.	.
8E-\	.	8g/	.	8ee-\	.	4ee-\	Ach	U-
8E-\J	.	8g/J	.	8b-\J	.	.	.	.
8E-\L	.	8g/L	.	8dd-X\L	.	4dd-X\	ach	.
8E-\	.	8g/	.	16dd-\L	.	.	.	.
.	X X	.	.	16dd-\JJ	.	.	.	.
*	*	*	*	*	*	*	*ij	*
8A-\	.	8a-X/	.	8cc\L	.	4cc\	ach	-derz
*	*	*	*	*	*	*	*Xij	*
8A-\J	.	8a-/J	.	8cc\J	.	.	.	.
!LO:LB:g=original	!	!LO:LB:g=original	!	!	!	!	!	!
=44	=44	=44	=44	=44	=44	=44	=44	=44
8F\L	5 n	8an/L	.	8cc\L	.	4r	.	.
8F\	.	8a/	.	8ff\	.	.	.	.
8F\	.	8a/	.	8ff\	.	4ff\	Ah	U-
8F\J	.	8a/J	.	8cc\J	.	.	.	.
*	*	*	*	*	*	*	*ij	*
8F\L	7 5	8a/L	.	8ee-\L	.	4ee-\	ah	.
8F\	.	8a/	.	8ee-\	.	.	.	.
8B-\	.	8b-/	.	8dd\	.	4ddn\	ah	-derz
*	*	*	*	*	*	*	*Xij	*
8B-\J	.	8b-/J	.	8dd\J	.	.	.	.
=45	=45	=45	=45	=45	=45	=45	=45	=45
8BB-/L	5	8b-\L	.	8b-\L	.	8r	.	.
8BB-/	.	8dd\	.	8ff\	.	8ff\	Ach	u-
*	*	*	*	*	*	*	*ij	*
8BB-/	6	8dd\	.	8ff\	.	8ff\	ach	-durz
*	*	*	*	*	*	*	*Xij	*
8BB-/J	.	8ee-\J	.	8gg\J	.	8gg\	me	w o-
8BB-/L	7_	8ff\L	.	8aa-\L	.	8aa-\	Se-	-po-
8BB-/	.	8dd\	.	8ff\	.	8ff\	-rce	.
8BB-/	.	8ee-\	.	8gg\	.	8gg\L	Ach	-kę
8BB-/J	6	8g\J	.	8ee-\J	.	8ee-\J	.	.
=46	=46	=46	=46	=46	=46	=46	=46	=46
!	!	!	!	!LO:TX:a:t=P:problem:mixed beam	!	!	!	!
8BB-'/L	.	8a-X/L	.	8ff\L	.	4ff\	ach	ach
!	!	!	!	!	!LO:DY:b	!	!	!
8BB-'/	.	8d/	.	8f/	f	.	.	.
8BB-'/	.	8d/	.	8f/	.	4r	.	.
8BB-'/J	.	8e-/J	.	8g/J	.	.	.	.
*	*	*	*	*	*	*	*ij	*ij
!	!	!	!	!LO:LB:g=original	!	!	!	!
8BB-'/L	.	8f/L	.	8a-/L	.	4ff\	ach	ach
*	*	*	*	*	*	*	*Xij	*Xij
8BB-'/	.	8d/	.	8f/	.	.	.	.
8BB-'/	.	8e-/	.	8g/	.	4r	.	.
8BB-'/J	.	8g/J	.	8e-/J	.	.	.	.
!	!	!	!	!	!	!LO:LB:g=original	!	!
=47	=47	=47	=47	=47	=47	=47	=47	=47
!	!	!	!	!LO:TX:a:t=P:problem:mixed beam	!	!	!	!
8BB-/L	5-	8b-\L	.	8f/L	.	8r	.	.
8BB-/	.	8dd\	.	8ff\	.	8ff\	Ach	U-
8BB-/	.	8dd\	.	8ff\	.	8ff\	ach	-derz
8BB-/J	6	8ee-\J	.	8gg\J	.	8gg\	me	w o-
!	!	!	!	!	!	!LO:TX:a:t=P:problem:łuki wpisane innym tuszem	!	!
8BB-/L	7_	8ff\L	.	8aa-\L	.	(8aa-\L	Ser-	-po-
8BB-/	.	8dd\	.	8ff\	.	8ff\J)	.	.
8BB-/	.	8ee-\	.	8gg\	.	(8gg\L	-ce	-kę
8BB-/J	6	8g\J	.	8ee-\J	.	8ee-\J)	.	.
!	!	!LO:LB:g=original	!	!	!	!	!	!
=48	=48	=48	=48	=48	=48	=48	=48	=48
8BB-/L	.	8b-\L	.	8ff\L	.	(8ff\L	o	o
8BB-/	.	8b-\	.	8dd\J	.	16ee-\L	.	.
.	.	.	.	.	.	16dd\JJ)	.	.
8AAn/	6	8cc\	.	16ee-\LL	.	(16ee-\LL	twar-	moy
.	.	.	.	16dd\	.	16dd\	.	.
8AA/J	.	8an\J	.	16cc\	.	16cc\	.	.
.	.	.	.	16b-\JJ	.	16b-\JJ)	.	.
!LO:TX:a:t=P:problem:mixed beam	!	!	!	!	!	!	!	!
8F\L	.	8f/L	.	8an\L	.	8an\	-dy	Je-
8F\	n	8f/	.	16b-\L	.	(16b-\LL	ka-	-zu
.	.	.	.	16cc\JJ	.	16cc\JJ)	.	.
8F\	.	8b-/	.	8.dd\L	.	(8.dd\L	-mie-	pra-
8FF/J	4	8an/J	.	.	.	.	.	.
.	n3	.	.	16cc\Jk	.	16cc\Jk)	.	.
!LO:LB:g=original	!	!	!	!	!	!	!	!
=49	=49	=49	=49	=49	=49	=49	=49	=49
8BB-/L	.	8b-\L	.	8b-\L	.	8b-\	-niu	-wy
8BB-/	.	8gg\	.	8bb-\	.	8r	.	.
8BB-/	-	8gg\	.	8bb-\	.	4r	.	.
8BB-/J	7_	8ff\J	.	8aan\J	.	.	.	.
8BB-/L	.	8ff\L	.	8aa\L	.	2re	.	.
8BB-/	.	8ee-\	.	8gg\	.	.	.	.
8BB-/	6 4	8ee-\	.	8gg\	.	.	.	.
8BB-/J	5 3	8dd\J	.	8ff\J	.	.	.	.
!	!	!	!	!LO:LB:g=original	!	!	!	!
=50	=50	=50	=50	=50	=50	=50	=50	=50
!	!	!LO:TX:a:t=P:problem:mixed beam	!	!	!	!	!	!
4BB-/	.	8dd\L	.	8ff\L	.	8r	.	.
.	.	8B-/	.	8dd\	.	8ff\	Nie-	Niech
4r	.	8B-/	.	8dd\	.	8ff\	-po-	wy-
.	.	8B-/J	.	8ee-\J	.	8gg\	-ru-	-pris-
2r	.	8B-/L	.	8ff\L	.	(8aa-\L	-szo-	-nie
.	.	8B-/	.	8dd\	.	8ff\J)	.	.
.	.	8c/	.	8ee-\	.	(8gg\L	-ny	Zal
.	.	8c/J	.	8cc\J	.	8ee-\J)	.	.
!	!	!	!	!	!	!LO:LB:g=original	!	!
=51	=51	=51	=51	=51	=51	=51	=51	=51
2r	.	8B-/L	.	8dd\L	.	(8ff\L	Nad	Nad
.	.	8B-/	.	8b-\	.	16ee-\L	.	.
.	.	.	.	.	.	16dd\JJ)	.	.
.	.	8f/	.	8cc\	.	(16ee-\LL	Bo-	to-
.	.	.	.	.	.	16dd\	.	.
.	.	8f/J	.	8an\J	.	16cc\	.	.
.	.	.	.	.	.	16b-\JJ)	.	.
!LO:TX:a:t=P:problem:mixed beam	!	!	!	!	!	!	!	!
8F\L	n	4f/	.	4f/	.	8an\	-gie(m)	-bą
8F\	.	.	.	.	.	(16b-\LL	ka-	.
.	.	.	.	.	.	16cc\JJ)	.	.
8F\	.	4r	.	4r	.	(8.dd\L	-mie-	krwa-
8FF/J	4	.	.	.	.	.	.	.
.	3	.	.	.	.	16cc\Jk)	.	.
=52	=52	=52	=52	=52	=52	=52	=52	=52
8BB-/L	.	8dd\L	.	8b-\L	.	4b-\	-niu	-wy
8BB-/	.	8dd\	.	8bb-\	.	.	.	.
8BB-/	.	8dd\	.	8bb-\	.	4r	.	.
8BB-/J	.	8dd\J	.	8ff\J	.	.	.	.
8BB-/L	6 4	8ee-\L	.	8gg\L	.	2re	.	.
8BB-/	5_ 3_	8dd\	.	8ff\	.	.	.	.
8BB-/	.	8dd\	.	8ff\	.	.	.	.
8BB-/J	X X	8dd\J	.	8ff\J	.	.	.	.
!	!	!LO:LB:g=original	!	!	!	!	!	!
=53	=53	=53	=53	=53	=53	=53	=53	=53
8BB-/L	.	8dd\L	.	8ff\L	.	00r	.	.
8BB-/	.	8dd\	.	8bb-\	.	.	.	.
8BB-/	.	8dd\	.	8bb-\	.	.	.	.
8BB-/J	.	8dd\J	.	8ff\J	.	.	.	.
8BB-/L	6 4	8ee-\L	.	8gg\L	.	.	.	.
8BB-/	5 3	8dd\	.	8ff\	.	.	.	.
8BB-/	.	8dd\	.	8ff\	.	.	.	.
8BB-/J	.	8dd\J	.	8ff\J	.	.	.	.
=54	=54	=54	=54	=54	=54	=54	=54	=54
8F\L	n	8an/L	.	16f/LL	.	.	.	.
.	.	.	.	16g/	.	.	.	.
8F\	.	16f/L	.	16an/	.	.	.	.
.	.	16g/JJ	.	16bn/JJ	.	.	.	.
8F\	.	8a/L	.	8cc/L	.	.	.	.
8F\J	.	16a/L	.	8f/J	.	.	.	.
.	.	16b-/JJ	.	.	.	.	.	.
!	!	!	!	!LO:LB:g=original	!	!	!	!
8F\L	7	8cc\L	.	8ee-\L	.	.	.	.
8F\	6 4	8b-\	.	8dd\	.	.	.	.
8F\	6 _	8b-\	.	8dd\	.	.	.	.
8F\J	5 3	8an\J	.	8cc\J	.	.	.	.
!LO:LB:g=original	!	!	!	!	!	!	!	!
=55	=55	=55	=55	=55	=55	=55	=55	=55
8F\L	.	8a-/L	.	16f/LL	.	.	.	.
.	.	.	.	16g/	.	.	.	.
8F\	.	16f/L	.	16an/	.	.	.	.
.	.	16g/JJ	.	16bn/JJ	.	.	.	.
!	!	!LO:SIC:s=8an	!	!	!	!	!	!
8F\	.	8a-/L	.	8cc\L	.	.	.	.
8F\J	.	16a-/L	.	8f\J	.	.	.	.
.	.	16b-/JJ	.	.	.	.	.	.
8F\L	7 5	8cc\L	.	8ee-\L	.	.	.	.
8F\	6 4	8b-\	.	8dd\	.	.	.	.
8F\	6 4	8b-\	.	8dd\	.	.	.	.
8F\J	5 n	8an\J	.	8cc\J	.	.	.	.
=56	=56	=56	=56	=56	=56	=56	=56	=56
8F\L	6 4	8b-\L	.	8dd\L	.	.	.	.
8F\	.	8f\	.	16cc\L	.	.	.	.
.	.	.	.	16b-\JJ	.	.	.	.
8F\	5_ n_	8f\	.	8cc\L	.	.	.	.
8F\J	X X	8f\J	.	8an\J	.	.	.	.
8BB-/L	.	8d/L	.	8b-\L	.	.	.	.
8BB-/	.	8d/	.	8b-\	.	.	.	.
8BB-/	.	8d/	.	8b-\	.	.	.	.
8BB-/J	.	8d/J	.	8b-\J	.	.	.	.
=57	=57	=57	=57	=57	=57	=57	=57	=57
!	!	!	!	!	!LO:DY:a:t=piano	!	!	!
8E-\L	.	8g/L	.	8b-\L	p	(8b-\L	Ję-	Ach
8E-\	.	8g/	.	8b-\	.	8ee-\J)	.	.
*	*	*	*	*	*	*	*	*ij
8E-\	-	8g/	.	8b-\	.	8ee-\	-czy	ach
*	*	*	*	*	*	*	*	*Xij
8E-\J	7_	8g/J	.	8b-\J	.	8dd-X\	Stwo-	.
8E-\L	.	8g/L	.	8b-\L	.	(8dd-\L	-ze-	ach
8E-\	.	8a-X/	.	8cc\	.	8cc\J)	.	.
*	*	*	*	*	*	*	*	*ij
8A-\	3	8a-/	.	8cc\	.	4cc\	-nie	ach
*	*	*	*	*	*	*	*	*Xij
8A-\J	.	8a-/J	.	8cc\J	.	.	.	.
!	!	!LO:LB:g=original	!	!	!	!	!	!
=58	=58	=58	=58	=58	=58	=58	=58	=58
8F\L	.	8an/L	.	8cc\L	.	(8cc\L	Ję-	ach
8F\	.	8a/	.	8cc\	.	8ff\J)	.	.
*	*	*	*	*	*	*	*	*ij
8F\	.	8a/	.	8cc\	.	8ff\	-czy	ach
8F\J	7_	8a/J	.	8cc\J	.	8ee-\	Stwo-	.
8F\L	.	8a/L	.	8cc\L	.	4ee-\	-ze-	ach
8F\	.	8b-/	.	8dd\	.	.	.	.
8B-\	3	8b-/	.	8dd\	.	4dd\	-nie	ach
*	*	*	*	*	*	*	*	*Xij
8B-\J	.	8b-/J	.	8dd\J	.	.	.	.
!	!	!	!	!LO:LB:g=original	!	!LO:LB:g=original	!	!
=59	=59	=59	=59	=59	=59	=59	=59	=59
8E-\L	.	8ee-\L	.	8gg\L	.	8gg\	Kto-	Krusz
8E-\	.	8ee-\	.	16ff\L	.	(16ff\LL	-re	twar-
.	.	.	.	16ee-\JJ	.	16ee-\JJ)	.	.
8D\	.	8dd\	.	8ff\L	.	(16dd\LL	nie-	-de
.	.	.	.	.	.	16cc\JJ)	.	.
8F\J	.	8dd\J	.	8ff\J	.	(16b-\LL	-zgrze-	ſu-
.	.	.	.	.	.	16a-\JJ)	.	.
8BB-/L	.	8dd\L	.	8b-\L	.	4b-\	-szy-	-mie-
8BB-/	8	8gg\	.	8bb-\	.	.	.	.
8BB-/	8	8gg\	.	8bb-\	.	4b-\	-ło	-nie
8BB-/J	-7	8ff\J	.	8aa-X\J	.	.	.	.
!LO:LB:g=original	!	!	!	!	!	!	!	!
=60	=60	=60	=60	=60	=60	=60	=60	=60
!	!	!LO:TX:a:t=P:problem:mixed beam	!	!	!	!	!	!
4E-\	.	8ee-\L	.	8gg\	.	(8g\L	Cie-	puy-
.	.	8e-/	.	4gg\	.	8b-\J)	.	.
4r	.	8e-/	.	.	.	8b-\	-bie	-dą
.	.	8b-/J	.	8ff\	.	8a-\	Zal	gdy
2rBB	.	8B-/L	.	8ff\L	.	(8a-\L	mi-	zda-
.	.	8B-/	.	8ee-\	.	8g\J)	.	.
.	.	8B-/	.	8ee-\	.	(8g\L	-ia	-rziſz
.	.	8B-/J	.	8dd\J	.	8f\J)	.	.
=61	=61	=61	=61	=61	=61	=61	=61	=61
4BB-/	.	8B-/L	.	8dd\L	.	(8f/L	cie-	poy-
.	.	8B-/	.	8ff\	.	8a-/J)	.	.
4r	.	8B-/	.	8ff\	.	8a-\	-bie	-dą
.	.	8B-/J	.	8ee-\J	.	8g\	zal	gdi
2rBB	.	8B-/L	.	8ee-\L	.	(8g/L	mi-	zda-
.	.	8B-/	.	8dd\	.	8f/J)	.	.
.	.	8B-/	.	8dd\	.	4f/	-ia	-rzyſz
.	.	8B-/J	.	8dd\J	.	.	.	.
!	!	!	!	!	!	!LO:LB:g=original	!	!
=62	=62	=62	=62	=62	=62	=62	=62	=62
!LO:TX:a:t=P:problem:mixed beam	!	!	!	!LO:TX:a:t=P:problem:mixed beam	!	!	!	!
8E-\L	.	8g/L	.	8ee-\L	.	(16g\LL	Cos	rzew-
.	.	.	.	.	.	16a-\JJ)	.	.
8G\	.	8g/	.	8g/	.	(16b-\LL	Bo-	-li-
.	.	.	.	.	.	16a-\JJ)	.	.
8B-\	.	8g/	.	8g/	.	8g/	-ga	-we
8BB-/J	.	8f/J	.	8f/J	.	8f/	za-	Stru-
!	!	!LO:TX:a:t=P:problem:mixed beam	!	!LO:TX:a:t=P:problem:mixed beam	!	!	!	!
8E-\L	.	8g/L	.	8g/L	.	4e-/	-bi-	-mie-
8E-\	.	8ee-\	.	8ee-\	.	.	.	.
8B-\	.	8dd\	.	8dd\	.	4e-/	-ło	-nie
8E-\J	.	8cc\J	.	8cc\J	.	.	.	.
!	!	!LO:PB:g=original	!	!	!	!	!	!
=63	=63	=63	=63	=63	=63	=63	=63	=63
4BB-/	4	8b-\L	.	8b-\	.	0r	.	.
.	.	8B-/	.	4b-/	.	.	.	.
4r	.	8B-/	.	.	.	.	.	.
.	.	8B-/J	.	8a-X/	.	.	.	.
2rBB	.	8B-/L	.	8a-/L	.	.	.	.
.	.	8B-/	.	8g/	.	.	.	.
.	.	8B-/	.	8g/	.	.	.	.
.	.	8B-/J	.	8f/J	.	.	.	.
!	!	!	!	!LO:LB:g=original	!	!	!	!
=64	=64	=64	=64	=64	=64	=64	=64	=64
4BB-/	5 3	8B-/L	.	8f/L	.	.	.	.
.	.	8B-/	.	8a-/	.	.	.	.
4r	.	8B-/	.	8a-/	.	.	.	.
.	.	8B-/J	.	8g/J	.	.	.	.
2rBB	.	8B-/L	.	8g/L	.	.	.	.
.	.	8B-/	.	8f/	.	.	.	.
.	.	8B-/	.	8f/	.	.	.	.
.	.	8B-/J	.	8e-/J	.	.	.	.
=65	=65	=65	=65	=65	=65	=65	=65	=65
!	!	!LO:TX:a:t=P:problem:mixed beam	!	!LO:TX:a:t=P:problem:mixed beam	!LO:DY:a	!	!	!
8BB-'/L	.	8B-/L	.	8e-/L	f	(8g\L	Cie-	poy-
8BB-'/	.	8b-\	.	8gg\	.	8b-\J)	.	.
8BB-'/	.	8b-\	.	8gg\	.	8b-\	-bie	-dą
8BB-'/J	.	8a-X\J	.	8ff\J	.	8a-\	Zal	gdy
8BB-'/L	.	8a-/L	.	8ff\L	.	(8a-\L	mi	zda-
8BB-'/	.	8g/	.	8ee-\	.	8g\J)	Zal	.
8BB-'/	.	8g/	.	8ee-\	.	(8g\L	mi-	-rzysz
8BB-'/J	.	8f/J	.	8dd\J	.	8f\J)	-ia	.
!LO:LB:g=original	!	!	!	!	!	!	!	!
=66	=66	=66	=66	=66	=66	=66	=66	=66
8BB-/L	.	8f/L	.	8dd\L	.	8f/L	Cie-	poy-
8BB-/	.	8a-/	.	8ff\	.	8a-/J	.	.
8BB-/	.	8a-/	.	8ff\	.	8a-/	-bie	-dą
8BB-/J	.	8g/J	.	8ee-\J	.	8g/	Zal	gdy
8BB-/L	.	8g/L	.	8ee-\L	.	(8g/L	mi-	zda-
8BB-/	.	8f/	.	8dd\	.	8f/J)	.	.
8BB-/	.	8f/	.	8dd\	.	4f/	-ia	-rzysz
8BB-/J	.	8f/J	.	8dd\J	.	.	.	.
!	!	!	!	!	!	!LO:PB:g=original	!	!
=67	=67	=67	=67	=67	=67	=67	=67	=67
!LO:TX:a:t=P:problem:mixed beam	!	!	!	!	!	!	!	!
8E-\L	5	8g/L	.	8ee-\L	.	(16g\LL	Cos	rzew-
.	.	.	.	.	.	16b-\JJ)	.	.
8G\	.	8g/	.	8cc\	.	8ee-\	Bo-	-li-
8B-\	.	8f/	.	8dd\	.	8.dd\	-ga	-we
8BB-/J	4	8f/J	.	8dd\J	.	.	.	.
.	3	.	.	.	.	16dd\	Za-	Stru-
!	!	!	!	!LO:TX:a:t=P:problem:mixed beam	!	!	!	!
8E-\L	5	8gL 8G/	.	8ee-\L	.	4ee-\	-bi-	-mie-
8E-\	.	8g 8G/	.	8e- 8G/	.	.	.	.
8E-\	.	8g 8G/	.	8e- 8G/	.	4ee-\	-ło	-nie
8E-\J	.	8gJ 8G/	.	8e-J 8G/	.	.	.	.
=68	=68	=68	=68	=68	=68	=68	=68	=68
*2\right	*	*	*	*	*	*	*	*
2E-\	.	2e-/	.	4g 4G/	.	1r	.	.
.	.	.	.	4r	.	.	.	.
!LO:TX:b:t=Da Capo	!	!	!	!LO:TX:b:t=Da Capo	!	!	!	!
2r	.	2rg	.	2rg	.	.	.	.
!LO:PB:g=original	!	!LO:LB:g=original	!	!	!	!	!	!
=69||	=69||	=69||	=69||	=69||	=69||	=69||	=69||	=69||
*k[b-e-]	*	*k[b-e-]	*	*k[b-e-]	*	*k[b-e-]	*	*
*M4/4	*	*M4/4	*	*M4/4	*	*M4/4	*	*
*met(c)	*	*met(c)	*	*met(c)	*	*met(c)	*	*
!	!	!LO:TX:b:t=Uwarz Grzeniku	!	!LO:TX:b:t=Uwarz Grzesniku	!	!	!	!
!LO:TX:a:t=P:problem:bemole E-, BB-	!	!LO:TX:a:t=3	!	!LO:TX:a:t=P:problem:bemole ee-, b-	!	!	!	!
!LO:TX:a:t=3	!	!LO:TX:a:t=P:problem:bemole ee-, b-	!	!LO:TX:a:t=3	!	!LO:TX:a::t=3:problem:powinno być 5	!	!
1r	.	2rg	.	8dd\L	.	00r	.	.
.	.	.	.	8gg\	.	.	.	.
.	.	.	.	8ff#X\	.	.	.	.
.	.	.	.	8gg\J	.	.	.	.
.	.	8dd\L	.	8aa\L	.	.	.	.
.	.	8gg\	.	8bb-\	.	.	.	.
.	.	8ff#X\	.	8aa\	.	.	.	.
.	.	8gg\J	.	8bb-\J	.	.	.	.
=70	=70	=70	=70	=70	=70	=70	=70	=70
8D\L	#	8ff#X\	.	8aa\	.	.	.	.
8G\	.	4bb-\	.	4ddd\	.	.	.	.
8F#X\	.	.	.	.	.	.	.	.
8G\J	.	16aa\LL	.	16ccc\LL	.	.	.	.
.	.	16gg\JJ	.	16bb-\JJ	.	.	.	.
!	!	!LO:TX:a:t=P:problem:mixed beam	!	!	!	!	!	!
8A\L	6 4	8ff#X\L	.	8aa\L	.	.	.	.
16D\L	#	8d/J	.	8dd\J	.	.	.	.
16E-\JJ	.	.	.	.	.	.	.	.
8F#X\L	.	8r	.	8r	.	.	.	.
8E-\J	.	16ff#X\LL	.	16aa\LL	.	.	.	.
.	.	16gg\JJ	.	16bb-\JJ	.	.	.	.
=71	=71	=71	=71	=71	=71	=71	=71	=71
8D\	7 #	16aa\LL	.	16ccc\LL	.	.	.	.
.	.	16gg\	.	16bb-\	.	.	.	.
8r	.	16ff\	.	16aa\	.	.	.	.
.	.	16gg\JJ	.	16bb-\JJ	.	.	.	.
8D\	7 #	16aa\LL	.	16ccc\LL	.	.	.	.
.	.	16gg\	.	16bb-\	.	.	.	.
4r	.	16ff#X\	.	16aa\	.	.	.	.
.	.	16ee-\JJ	.	16bb-\JJ	.	.	.	.
!	!	!LO:TX:a:t=P:problem:mixed beam	!	!	!	!	!	!
.	.	8dd\L	.	8ff#X\L	.	.	.	.
16D\LL	.	8d/J	.	8dd\J	.	.	.	.
16E-\JJ	.	.	.	.	.	.	.	.
8F\L	.	8r	.	8r	.	.	.	.
8G\J	.	8ee-X\	.	8gg\	.	.	.	.
=72	=72	=72	=72	=72	=72	=72	=72	=72
8r	.	4cc\	.	8gg\L	.	.	.	.
16C/LL	.	.	.	8cc\J	.	.	.	.
16D/JJ	3	.	.	.	.	.	.	.
!	!	!	!	!LO:LB:g=original	!	!	!	!
8E-\L	.	8r	.	4ffn\	.	.	.	.
8Fn\J	3	8dd\	.	.	.	.	.	.
8r	.	4b-\	.	8ff\L	.	.	.	.
!LO:SIC:o=8:v	!	!	!	!	!	!	!	!
16BB-/LL	.	.	.	8b-\J	.	.	.	.
!LO:SIC:o=8:v	!	!	!	!	!	!	!	!
16C/JJ	3	.	.	.	.	.	.	.
8D\L	.	8r	.	4ee-\	.	.	.	.
8E-\J	.	8cc\	.	.	.	.	.	.
!LO:LB:g=original	!	!	!	!	!	!	!	!
=73	=73	=73	=73	=73	=73	=73	=73	=73
!	!	!	!	!LO:TX:a:t=P:problem:mixed beam	!	!	!	!
8r	.	4a/	.	8ee-\L	.	1r	.	.
16AA/LL	.	.	.	8a/J	.	.	.	.
16BB-/JJ	.	.	.	.	.	.	.	.
!LO:TX:a:t=P:problem:mixed beam	!	!	!	!LO:TX:a:t=P:problem:mixed beam	!	!	!	!
8GG/L	.	8r	.	8dd\L	.	.	.	.
!	!	!LO:LB:g=original	!	!	!	!	!	!
8G\J	.	8b-\	.	8g/J	.	.	.	.
8A\L	5	4a/	.	4cc\	.	.	.	.
16A\L	.	.	.	.	.	.	.	.
16G\JJ	.	.	.	.	.	.	.	.
8F#X\L	6	16a/LL	.	16cc\LL	.	.	.	.
.	.	16cc/	.	16ee-\	.	.	.	.
8D\J	.	16b-/	.	16dd\	.	.	.	.
.	.	16a/JJ	.	16cc\JJ	.	.	.	.
=74	=74	=74	=74	=74	=74	=74	=74	=74
!LO:TX:a:t=P:problem:mixed beam	!	!	!	!	!	!	!	!
8G\L	.	8g/L	.	16b-/LL	.	2r	.	.
.	.	.	.	16g/	.	.	.	.
8GG/J	.	8d/	.	16ee-/	.	.	.	.
.	.	.	.	16g/JJ	.	.	.	.
!!LO:TX:a:t=P:problem:mixed beam	!	!	!	!	!	!	!	!
8D\L	.	8.d/	.	8.g/L	.	.	.	.
8DD/J	.	.	.	.	.	.	.	.
.	.	16c/Jk	.	16f#X/Jk	.	.	.	.
!	!	!	!	!	!LO:DY:a	!	!	!
4GG/	.	8B-/L	.	8g/L	p	4gg\	U-	Pat-
!	!	!	!LO:DY:a	!	!	!	!	!
.	.	16g/L	p	16g/L	.	.	.	.
.	.	16a/JJ	.	16a/JJ	.	.	.	.
4r	.	8b-/L	.	8b-/L	.	8dd\	-waſz	-rzai
.	.	8a/J	.	8a/J	.	8cc\	grzeſ-	na
=75	=75	=75	=75	=75	=75	=75	=75	=75
00r	.	8b-/L	.	8b-/L	.	4b-\	-ni-	ob-
.	.	8g/	.	8g/	.	.	.	.
.	.	8f#X/	.	8f#X/	.	4a\	-ku	-raz
.	.	8d/J	.	8d/J	.	.	.	.
!	!	!	!	!LO:LB:g=original	!	!	!	!
.	.	8g/L	.	8g/L	.	16g\LL	na	zba-
.	.	.	.	.	.	16a\JJ	.	.
!	!	!	!	!	!	!LO:SIC:l:s=wien	!	!
.	.	8g/	.	8g/	.	16b-\LL	nie-	-wie-
.	.	.	.	.	.	16a\JJ	.	-ny-
!	!	!	!	!	!	!LO:LB:g=original	!	!
.	.	8g/	.	8g/	.	8b-\	-bo	-nei
.	.	8g/J	.	8g/J	.	8cc\	za-	my-
=76	=76	=76	=76	=76	=76	=76	=76	=76
.	.	8f#X/L	.	8f#X/L	.	8dd\	-wzię-	-loſ-
.	.	16d/L	.	16d/L	.	8d/	-ty	-ci
.	.	16e-/JJ	.	16e-/JJ	.	.	.	.
.	.	8f#/L	.	8f#/L	.	4r	.	.
.	.	8d/J	.	8d/J	.	.	.	.
!	!	!	!	!LO:TX:a:t=P:problem:mixed beam	!	!	!	!
.	.	8Bn/L	.	8Bn/L	.	8dd\L	Ze	Za-
.	.	8g/	.	8bn\	.	8ee-\J	.	.
!	!	!	!	!	!	!LO:SIC:s=16ffn	!	!
.	.	8g/	.	8b\	.	(16ff-X\LL	za	-luy
.	.	.	.	.	.	16ee-\JJ)	.	.
.	.	8g/J	.	8b\J	.	(16dd\LL	cię	Zes
.	.	.	.	.	.	16cc\JJ)	.	.
=77	=77	=77	=77	=77	=77	=77	=77	=77
.	.	8g/L	.	8g/L	.	4bn\	Chrys-	Zgrzy-
.	.	8f/	.	8f/	.	.	.	.
.	.	8e-/	.	8e-/	.	8cc\	-tus	-zył
.	.	8c/J	.	8c/J	.	16dd\LL	na	po-
.	.	.	.	.	.	16ee-\JJ	.	.
.	.	8f/L	.	8f/L	.	16ff\LL	kkrzy-	-rzuc
.	.	.	.	.	.	16ee-\	.	.
.	.	8a-X/	.	8a-X/	.	16dd\	.	.
.	.	.	.	.	.	16cc\JJ	.	.
.	.	8g/	.	8g/	.	8.bn\	-zu	ſproſ-
.	.	8G/J	.	8G/J	.	.	.	.
.	.	.	.	.	.	16b\	roſ-	-ne
=78	=78	=78	=78	=78	=78	=78	=78	=78
!	!	!LO:TX:a:t=P:problem:mixed beam	!	!LO:TX:a:t=P:problem:mixed beam	!	!	!	!
.	.	8c/L	.	8c/L	.	8cc\	-pię-	Złoſ-
.	.	16cc\L	.	16cc\L	.	8c/	-ty	-ci
.	.	16b-\JJ	.	16dd\JJ	.	.	.	.
!	!	!LO:LB:g=original	!	!	!	!	!	!
.	.	16cc\LL	.	16ee-\LL	.	4r	.	.
.	.	16b-\	.	16dd\	.	.	.	.
.	.	16a\	.	16cc\	.	.	.	.
.	.	16g\JJ	.	16b-\JJ	.	.	.	.
.	.	8f/L	.	8a'/L	.	16cc\LL	Ze	Za-
.	.	.	.	.	.	16dd\JJ	.	.
.	.	8f/	.	8a'/	.	16ee-\LL	za	-luy
.	.	.	.	.	.	16dd\JJ	.	.
!	!	!	!	!	!	!LO:LB:g=original	!	!
!	!	!	!	!	!	!LO:SIC:o=16	!	!
.	.	8f/	.	8a'/	.	8cc\L	Cię	Zes
!	!	!	!	!	!	!LO:SIC:o=16	!	!
.	.	8f/J	.	8a'/J	.	8b-X\J	.	.
!	!	!	!	!LO:LB:g=original	!	!	!	!
=79	=79	=79	=79	=79	=79	=79	=79	=79
1r	.	8f/L	.	8f/L	.	4a\	Chrys-	Zgrzy-
.	.	8e-/	.	8e-/	.	.	.	.
.	.	8d/	.	8d/	.	8b-\	-tus	-szył
.	.	8c/J	.	8c/J	.	8ee-\	na	po-
.	.	8B-/L	.	8B-/L	.	4dd\	krzy-	-rzuc
.	.	8d/	.	8d/	.	.	.	.
.	.	8f/	.	8f/	.	8cc\	-zu	ſpros-
.	.	8A/J	.	8c/J	.	8dd\	roſ-	-ne
=80	=80	=80	=80	=80	=80	=80	=80	=80
!	!	!LO:TX:a:t=P:problem:mixed beam	!	!LO:TX:a:t=P:problem:mixed beam	!	!	!	!
8r	.	8B-/L	.	8B-/L	.	8b-\	-pię-	Złoſ-
16BB-/LL	.	8dd\	.	8ff\J	.	8B-/	-ty	-ci
16C/JJ	.	.	.	.	.	.	.	.
8D/L	6	8dd\	.	8bb-\L	.	4r	.	.
8E-/J	3	8ee-\J	.	8gg\J	.	.	.	.
8D/L	.	16ee-\LL	.	16gg\LL	.	2r	.	.
.	.	16dd\	.	16ff\	.	.	.	.
8BB-/	.	16dd\	.	16ff\	.	.	.	.
.	.	16cc\JJ	.	16aa\JJ	.	.	.	.
8C/	.	8b-\L	.	8bb-\L	.	.	.	.
8D/J	3	8cc\J	.	8ee-\J	.	.	.	.
=81	=81	=81	=81	=81	=81	=81	=81	=81
!	!	!	!	!	!	!LO:TX:a:t=3	!	!
8D/L	.	16cc\LL	.	16ee-\LL	.	0r	.	.
.	.	16b-\	.	16dd\	.	.	.	.
8BB-/	.	16b-\	.	16dd\	.	.	.	.
.	.	16a\JJ	.	16ff\JJ	.	.	.	.
!	!	!	!	!LO:TX:a:t=P:problem:mixed beam	!	!	!	!
8GG/	.	8b-/L	.	8gg\L	.	.	.	.
8BB-/J	.	8g/J	.	8b-/J	.	.	.	.
!LO:LB:g=original	!	!	!	!	!	!	!	!
!LO:TX:a:t=P:problem:mixed beam	!	!	!	!	!	!	!	!
8AA/L	.	4f/	.	4a/	.	.	.	.
16F\L	6	.	.	.	.	.	.	.
16G\JJ	.	.	.	.	.	.	.	.
8A\L	.	8r	.	8r	.	.	.	.
8F\J	.	8f/	.	8f/	.	.	.	.
=82	=82	=82	=82	=82	=82	=82	=82	=82
8B-\	.	8f/L	.	(16b-\LL	.	.	.	.
.	.	.	.	16a\)	.	.	.	.
8r	.	8f/J	.	(16cc\	.	.	.	.
.	.	.	.	16b-\JJ)	.	.	.	.
8BB-/	.	(16b-\LL	.	(16dd\LL	.	.	.	.
.	.	16a\)	.	16cc\)	.	.	.	.
8r	.	(16cc\	.	(16ee-\	.	.	.	.
.	.	16b-\JJ)	.	16dd\JJ)	.	.	.	.
8F'\L	.	(16dd\LL	.	(16ff\LL	.	.	.	.
.	.	16cc\)	.	16ee-\)	.	.	.	.
8F'\	.	(16ee-\	.	(16gg\	.	.	.	.
.	.	16dd\JJ)	.	16ff\JJ)	.	.	.	.
!	!	!LO:LB:g=original	!	!	!	!	!	!
8F'\	.	(16dd\LL	.	(16ff\LL	.	.	.	.
.	.	16cc\	.	16ee-\)	.	.	.	.
8F'\J	.	16cc\	.	(16ee-\	.	.	.	.
.	.	16b-\JJ)	.	16dd\JJ)	.	.	.	.
!	!	!	!	!LO:LB:g=original	!	!	!	!
=83	=83	=83	=83	=83	=83	=83	=83	=83
!LO:TX:a:t=|:problem	!	!	!	!	!	!	!	!
8F\L	.	(16b-/LL	.	16dd\LL	.	1r	.	.
.	.	16a/	.	16cc\	.	.	.	.
!LO:TX:a:t=|:problem	!	!	!	!	!	!	!	!
8F\	.	16a/	.	16cc\	.	.	.	.
.	.	16g/JJ)	.	16b-\JJ	.	.	.	.
!LO:TX:a:t=|:problem	!	!	!	!	!	!	!	!
8F\	.	(16g/LL	.	16b-/LL	.	.	.	.
.	.	16f/	.	16a/	.	.	.	.
!LO:TX:a:t=|:problem	!	!	!	!	!	!	!	!
8F\J	.	16f/	.	16a/	.	.	.	.
.	.	16en/JJ)	.	16g/JJ	.	.	.	.
!LO:TX:a:t=|:problem	!	!	!	!	!	!	!	!
8F\L	.	16f/LL	.	16g/LL	.	.	.	.
.	.	16f/J	.	16f/J	.	.	.	.
!LO:TX:a:t=|:problem	!	!	!	!	!	!	!	!
8F\	.	8a/J	.	8f/J	.	.	.	.
8F\	7_	4cc\	.	4ee-\	.	.	.	.
8F\J	X	.	.	.	.	.	.	.
=84	=84	=84	=84	=84	=84	=84	=84	=84
8B-\L	.	8b-/L	.	8dd\L	.	2re	.	.
16D\L	.	8f/J	.	8b-\	.	.	.	.
16E-\JJ	.	.	.	.	.	.	.	.
!LO:TX:a:t=P:problem:mixed beam	!	!	!	!	!	!	!	!
8F\L	.	8.f/L	.	8.ccM\	.	.	.	.
8FF/J	4	.	.	.	.	.	.	.
.	3	16e-/Jk	.	16b-\Jk	.	.	.	.
4BB-/	.	4d/	.	4b-/	.	4b-\	Dro-	Cia-
4r	.	8g/L	.	8g/L	.	8bn\	-giem	-lo
.	.	8f/J	.	8fn/J	.	8b\	klei-	nay-
!LO:LB:g=original	!	!	!	!	!	!	!	!
=85	=85	=85	=85	=85	=85	=85	=85	=85
!LO:TX:a:t=1	!	!	!	!	!	!	!	!
1r	.	8e-/L	.	8e-/L	.	4cc\	-no-	-ſwiet-
.	.	8e-/	.	8e-/	.	.	.	.
.	.	8d/	.	8d/	.	4dd\	-tem	-ſze
.	.	8Bn/J	.	8Bn/J	.	.	.	.
!	!	!	!	!	!	!LO:LB:g=original	!	!
.	.	8c/L	.	8c/L	.	8ee-\	krwią	Człon-
.	.	8f/	.	8f/	.	16dd\LL	Swiat	-ki
.	.	.	.	.	.	16cc\JJ	.	.
!	!	!	!	!	!	!LO:SIC:s=8.n	!	!
.	.	8g/	.	8g/	.	8.b#X\L	od-	tak
.	.	8G/J	.	8G/J	.	.	.	.
.	.	.	.	.	.	16b#\Jk	-ku-	Zra-
=86	=86	=86	=86	=86	=86	=86	=86	=86
8r	.	8c/L	.	8c/L	.	8cc\	-pu-	-nio-
16D/LL	.	16d/L	.	16d/L	.	8c/	-ie	-ne
16C/JJ	.	16c/JJ	.	16c/JJ	.	.	.	.
8BB-/L	6	8B-X/L	.	8B-X/L	.	4r	.	.
8AA/J	6\	8A/J	.	8A/J	.	.	.	.
!	!	!LO:TX:a:t=P:problem:mixed beam	!	!	!	!	!	!
4GG/	.	8G/L	.	4G/	.	4dd\	Zbaw-	rę-
.	.	8b-\J	.	.	.	.	.	.
4r	.	8a/L	.	4r	.	8cc\	-ien-	-ka-
.	.	8g/J	.	.	.	8b-X\	-ną	-mi
!	!	!LO:LB:g=original	!	!LO:LB:g=original	!	!	!	!
=87	=87	=87	=87	=87	=87	=87	=87	=87
1r	.	4g/	.	2rg	.	4b-\	Mi-	lot-
.	.	4f#X/	.	.	.	4a\	-łosc	-row
!	!	!LO:TX:a:t=P:problem:mixed beam	!	!	!	!	!	!
.	.	8d/L	.	4ddd\	.	4b-\	Zba-	rę-
.	.	8bb-\	.	.	.	.	.	.
.	.	8aa\	.	8ccc\L	.	8a\	-więn-	-ka-
.	.	8gg\J	.	8bb-\J	.	8g\	-ną	-mi
=88	=88	=88	=88	=88	=88	=88	=88	=88
2rBB	.	4gg\	.	4bb-\	.	4g/	My-	łot-
.	.	4ff#X\	.	4aa\	.	4f#X/	-łosc	-row
4D/	.	4dd\	.	4bb-\	.	2re	.	.
!LO:TX:b:t=|:problem	!	!	!	!	!	!	!	!
8C/L	.	8cc\L	.	8aa\L	.	.	.	.
!LO:TX:b:t=|:problem	!	!	!	!	!	!	!	!
8BB-/J	.	8b-\J	.	8gg\J	.	.	.	.
!	!	!	!	!	!	!LO:LB:g=original	!	!
=89	=89	=89	=89	=89	=89	=89	=89	=89
8BB-/L	.	4b-/	.	4gg\	.	2re	.	.
8AA/J	.	.	.	.	.	.	.	.
8BB-/L	.	4a/	.	4ff#X\	.	.	.	.
8AA/J	.	.	.	.	.	.	.	.
!	!	!LO:TX:a:t=P:problem:mixed beam	!	!	!	!	!	!
8D\L	.	8d/L	.	8dd\L	.	4dd\	Zba-	rę-
8d\	.	8dd\	.	8ddd\	.	.	.	.
8c\	.	8cc\	.	8ccc\	.	8cc\	-wie-	-ka-
8B-\J	.	8b-\J	.	8bb-\J	.	8b-X\	-ną	-mi
!LO:LB:g=original	!	!	!	!	!	!	!	!
=90	=90	=90	=90	=90	=90	=90	=90	=90
4B-\	.	4b-/	.	4bb-\	.	4b-\	My-	Lot-
4A\	.	4a/	.	4aa\	.	4a\	-łosc	-row
!LO:TX:a:t=P:problem:mixed beam	!	!	!	!	!	!	!	!
8G\L	.	8g/L	.	16gg\LL	.	8b-\	Smierc	Sa-
.	.	.	.	16bb-\	.	.	.	.
16BB-/L	.	8dd/	.	16aa\	.	16a\LL	ſwą	-mych
16C/JJ	.	.	.	16gg\JJ	.	16g\JJ	.	.
!LO:TX:a:t=P:problem:mixed beam	!	!	!	!	!	!	!	!
8D\L	.	8dd/	.	8.ff#X\L	.	8.a\	Mę-	u-
8DD/J	.	8dd/J	.	.	.	.	.	.
.	.	.	.	16ff#\Jk	.	16a\	-ką	-drę-
=91	=91	=91	=91	=91	=91	=91	=91	=91
!	!	!LO:TX:a:t=P:problem:mixed beam	!	!LO:TX:a:t=P:problem:mixed beam	!	!	!	!
2GG/	.	8b-\L	.	8gg\L	.	8g\	tru-	-cze-
.	.	8B-/J	.	8g/J	.	8g\	-ie.	-nie.
.	.	4r	.	4r	.	4r	.	.
!	!	!	!	!LO:TX:b:t=Da Capo	!	!	!	!
2r	.	2rg	.	2r	.	2r	.	.
!	!	!	!	!	!	!LO:PB:g=original	!	!
==	==	==	==	==	==	==	==	==
*-	*-	*-	*-	*-	*-	*-	*-	*-
!!!system-decoration: s1[g1]s4
!!!RDF**dynam: p = "pia"
!!!RDF**dynam: f = "For"
!!!ENC: Marta Lawrence
!!!END: 2020-11-03
!!!ENC: Kamil Watkowski
!!!END: 2020-04-23
